X:132occ
T:Kean O'Hara (3rd Setting)
C:Turlough O'Carolan (1670-1738)
C:MODERATO
B:Complete Works Of Turlough O'Carolan (PB - no pub - no date - fleamarket find)
Z:to Noteworthy and MIDI by Chris Gilb; Translation to ABC and GIF copy by Vince Brennan
I:abc2nwc
M:3/4
L:1/8
K:G
G3/2E/2|D2E2 (3GAB|AG E2GE|D2E2 (3GAB|
A4GA|B2d2 (3efg|ed cB AG|G2B2d2|e4dc|
B2d2 (3efg|ed cB AG|G2Bd eg|g4f2|
ed B2AG|AG E2GE|DE  (3GAB A3/2G/2|G4|]

